store-settings.svg

<svg fill="currentColor" viewBox="0 0 24 24"><path d="M20 6H4V4h16zm1 6v2h-1v6h-2v-6h-4v6H4v-6H3v-2l1-5h16zm-9 2H6v4h6zM7 24h2v-2H7zm4 0h2v-2h-2zm4 0h2v-2h-2z"/></svg>

<svg  viewBox="0 0 24 24" fill="currentColor"><path  d="M20 6H4V4H20V6M21 12V14H20V20H18V14H14V20H4V14H3V12L4 7H20L21 12M12 14H6V18H12V14M7 24H9V22H7V24M11 24H13V22H11V24M15 24H17V22H15V24Z"/></svg>
